X:225
T:Pauline Connelly's
R:reel
C:Liz Carroll
D:An Tradisiun Beo
Z:Transcribed by Dave Marshall
M:C|
K:Amix
|: A,2A,A, G,B,DG | FD (3DDD ADFD | EDCA, G,B,DG | FDAD BDAD |
A,2A,A, G,B,DG | FD (3DDD ADFA | c2AG EDCE |1 DFAD GEFD :|2 DFAD GEFA |
|: cA (3AAA EDCE | cAA^G AB=cd | BGGA GEDG | BGGA Bcde |
cA (3AAA EDCF | EDCB, A,CEG | FDAF G2ED | CEAB ceA2 :|
